X: 27443
T: Molly Bán
R: reel
M: 4/4
K: Edorian
|:EBBA BdAG|F/F/F AF BAGF|EBBA ~B3 c|dcBA BAFG|
EBBA BdAG|F/F/F AF BAGF|EFGE FGAF|1 GABG ABGF:|2 GABG ABcd||
|:eB~B2 efge|fdcd Adfd|eB~B2 efge|afge fe^dB|
eB~B2 efge|fdcd Adfa|b2 bg ~a3 f|1 gbge fe^dB:|2 gbge dAFD||

